X:2048
L:1/8
M:4/4
K:C
 BEA |[M:2/2][K:D]SOSOO .!fermata!PMTuCOMe | f2 Bc dBfB | cAec aecA | f2 Bc dBfB | cAec dBBe | 
 f2 Bc dBfB | cAec aecA | BcdB cdea | fdec dB B || c | Bbfd BcdB | cAec aecA | Bbfd BcdB | 
 cAec dBBc | Bbfd BcdB | cAcA aecA | Baga fgef | dfec dB B |]

